svgs/duotone/traffic-light-stop.svg

<svg xmlns="http://www.w3.org/2000/svg" viewBox="0 0 384 512"><defs><style>.fa-secondary{opacity:.4}</style></defs><path d="M240 112a48 48 0 1 1-48-48 48 48 0 0 1 48 48z" class="fa-secondary"/><path d="M384 192h-64v-37.88c37.2-13.22 64-48.38 64-90.12h-64V32a32 32 0 0 0-32-32H96a32 32 0 0 0-32 32v32H0c0 41.74 26.8 76.9 64 90.12V192H0c0 41.74 26.8 76.9 64 90.12V320H0c0 42.79 28.19 78.61 66.86 91v-.15a128 128 0 0 0 250.34 0v.15c38.61-12.4 66.8-48.22 66.8-91h-64v-37.88c37.2-13.22 64-48.38 64-90.12zM192 416a48 48 0 1 1 48-48 48 48 0 0 1-48 48zm0-128a48 48 0 1 1 48-48 48 48 0 0 1-48 48zm0-128a48 48 0 1 1 48-48 48 48 0 0 1-48 48z" class="fa-primary"/></svg>

<svg xmlns="http://www.w3.org/2000/svg" viewBox="0 0 384 512"><!--! Font Awesome Pro 6.0.0-alpha3 by @fontawesome - https://fontawesome.com License - https://fontawesome.com/license (Commercial License) --><defs><style>.fa-secondary{opacity:.4}</style></defs><path class="fa-primary" d="M383.1 191.1L320 192V154.1c37.25-13.25 63.99-48.39 63.99-90.14L320 64V32c0-17.62-14.38-32-32-32H96C78.38 0 64 14.38 64 32v32L.002 64c0 41.75 26.75 76.87 63.1 90.12V192L.0059 192c0 41.75 26.74 76.87 63.99 90.12V320l-63.99 .0072c0 42.88 28.24 78.74 66.99 90.99c12.38 57.75 63.63 101 125 101s112.6-43.25 124.1-101c38.75-12.25 66.99-48.13 66.99-91L320 320V282.1C357.3 268.9 383.1 233.7 383.1 191.1zM192 416c-26.5 0-48-21.5-48-48S165.5 320 192 320s48 21.5 48 48S218.5 416 192 416zM192 288C165.5 288 144 266.5 144 240S165.5 192 192 192s48 21.5 48 48S218.5 288 192 288zM192 160c-26.5 0-48-21.5-48-48s21.5-48 48-48s48 21.5 48 48S218.5 160 192 160z"/><path class="fa-secondary" d="M192 160c-26.5 0-48-21.5-48-48s21.5-48 48-48s48 21.5 48 48S218.5 160 192 160z"/></svg>
